icons/carbohydrates.svg

<svg width="48" height="48" viewBox="0 0 48 48" fill="none" xmlns="http://www.w3.org/2000/svg">
<path fill-rule="evenodd" clip-rule="evenodd" d="M20.65 21H16.35C10.6339 21 6 25.6339 6 31.35C6 33.9181 8.08188 36 10.65 36H26.35C28.9181 36 31 33.9181 31 31.35C31 25.6339 26.3661 21 20.65 21ZM16.35 19C9.52928 19 4 24.5293 4 31.35C4 35.0227 6.97731 38 10.65 38H26.35C30.0227 38 33 35.0227 33 31.35C33 24.5293 27.4707 19 20.65 19H16.35Z" fill="black"/>
<path fill-rule="evenodd" clip-rule="evenodd" d="M13.1608 23.0715C12.3958 24.3653 12 25.9408 12 27C12 27.5523 11.5523 28 11 28C10.4477 28 10 27.5523 10 27C10 25.5592 10.5042 23.6347 11.4392 22.0535C12.364 20.4895 13.8798 19 16 19C16.5523 19 17 19.4477 17 20C17 20.5523 16.5523 21 16 21C14.9202 21 13.936 21.7605 13.1608 23.0715Z" fill="black"/>
<path fill-rule="evenodd" clip-rule="evenodd" d="M18.1608 23.0715C17.3958 24.3653 17 25.9408 17 27C17 27.5523 16.5523 28 16 28C15.4477 28 15 27.5523 15 27C15 25.5592 15.5042 23.6347 16.4392 22.0535C17.364 20.4895 18.8798 19 21 19C21.5523 19 22 19.4477 22 20C22 20.5523 21.5523 21 21 21C19.9202 21 18.936 21.7605 18.1608 23.0715Z" fill="black"/>
<path fill-rule="evenodd" clip-rule="evenodd" d="M25.0903 19.9887C25.3727 20.4634 25.2168 21.077 24.7422 21.3594C23.9445 21.8339 23.2483 22.7549 22.7457 23.8768C22.2469 24.9899 22 26.1656 22 27C22 27.5523 21.5523 28 21 28C20.4477 28 20 27.5523 20 27C20 25.8409 20.3254 24.3872 20.9205 23.059C21.5117 21.7395 22.4309 20.4072 23.7196 19.6406C24.1943 19.3582 24.8079 19.5141 25.0903 19.9887Z" fill="black"/>
<path fill-rule="evenodd" clip-rule="evenodd" d="M35 10C35.5523 10 36 10.4477 36 11V25C36 25.5523 35.5523 26 35 26C34.4477 26 34 25.5523 34 25V11C34 10.4477 34.4477 10 35 10Z" fill="black"/>
<path fill-rule="evenodd" clip-rule="evenodd" d="M43 10C43.5523 10 44 10.4477 44 11V25C44 25.5523 43.5523 26 43 26C42.4477 26 42 25.5523 42 25V11C42 10.4477 42.4477 10 43 10Z" fill="black"/>
<path fill-rule="evenodd" clip-rule="evenodd" d="M39 10C39.5523 10 40 10.4477 40 11V25C40 25.5523 39.5523 26 39 26C38.4477 26 38 25.5523 38 25V11C38 10.4477 38.4477 10 39 10Z" fill="black"/>
<path fill-rule="evenodd" clip-rule="evenodd" d="M39 22C39.5523 22 40 22.4477 40 23V37C40 37.5523 39.5523 38 39 38C38.4477 38 38 37.5523 38 37V23C38 22.4477 38.4477 22 39 22Z" fill="black"/>
<path fill-rule="evenodd" clip-rule="evenodd" d="M34 11V16.5279C34 18.043 34.856 19.428 36.2111 20.1056L40 22V16.4721C40 14.957 39.144 13.572 37.7889 12.8944L34 11ZM36 14.2361V16.5279C36 17.2854 36.428 17.9779 37.1056 18.3167L38 18.7639V16.4721C38 15.7146 37.572 15.0221 36.8944 14.6833L36 14.2361Z" fill="black"/>
<path fill-rule="evenodd" clip-rule="evenodd" d="M34 17V22.5279C34 24.043 34.856 25.428 36.2111 26.1056L40 28V22.4721C40 20.957 39.144 19.572 37.7889 18.8944L34 17ZM36 20.2361V22.5279C36 23.2854 36.428 23.9779 37.1056 24.3167L38 24.7639V22.4721C38 21.7146 37.572 21.0221 36.8944 20.6833L36 20.2361Z" fill="black"/>
<path fill-rule="evenodd" clip-rule="evenodd" d="M34 23V28.5279C34 30.043 34.856 31.428 36.2111 32.1056L40 34V28.4721C40 26.957 39.144 25.572 37.7889 24.8944L34 23ZM36 26.2361V28.5279C36 29.2854 36.428 29.9779 37.1056 30.3167L38 30.7639V28.4721C38 27.7146 37.572 27.0221 36.8944 26.6833L36 26.2361Z" fill="black"/>
<path fill-rule="evenodd" clip-rule="evenodd" d="M44 11V16.5279C44 18.043 43.144 19.428 41.7889 20.1056L38 22V16.4721C38 14.957 38.856 13.572 40.2111 12.8944L44 11ZM42 14.2361V16.5279C42 17.2854 41.572 17.9779 40.8944 18.3167L40 18.7639V16.4721C40 15.7146 40.428 15.0221 41.1056 14.6833L42 14.2361Z" fill="black"/>
<path fill-rule="evenodd" clip-rule="evenodd" d="M44 17V22.5279C44 24.043 43.144 25.428 41.7889 26.1056L38 28V22.4721C38 20.957 38.856 19.572 40.2111 18.8944L44 17ZM42 20.2361V22.5279C42 23.2854 41.572 23.9779 40.8944 24.3167L40 24.7639V22.4721C40 21.7146 40.428 21.0221 41.1056 20.6833L42 20.2361Z" fill="black"/>
<path fill-rule="evenodd" clip-rule="evenodd" d="M44 23V28.5279C44 30.043 43.144 31.428 41.7889 32.1056L38 34V28.4721C38 26.957 38.856 25.572 40.2111 24.8944L44 23ZM42 26.2361V28.5279C42 29.2854 41.572 29.9779 40.8944 30.3167L40 30.7639V28.4721C40 27.7146 40.428 27.0221 41.1056 26.6833L42 26.2361Z" fill="black"/>
</svg>

<svg
  xmlns="http://www.w3.org/2000/svg"
  width="24"
  height="24"
  viewBox="0 0 24 24"
  fill="none"
  stroke="currentColor"
  stroke-width="2"
  stroke-linecap="round"
  stroke-linejoin="round"
>
  <path
    fill-rule="evenodd"
    d="M20.65 21h-4.3C10.634 21 6 25.634 6 31.35A4.65 4.65 0 0 0 10.65 36h15.7A4.65 4.65 0 0 0 31 31.35C31 25.634 26.366 21 20.65 21m-4.3-2C9.53 19 4 24.53 4 31.35A6.65 6.65 0 0 0 10.65 38h15.7A6.65 6.65 0 0 0 33 31.35C33 24.53 27.47 19 20.65 19z"
    clip-rule="evenodd"
  />
  <path
    fill-rule="evenodd"
    d="M13.16 23.072C12.397 24.365 12 25.94 12 27a1 1 0 1 1-2 0c0-1.44.504-3.365 1.44-4.946C12.363 20.49 13.88 19 16 19a1 1 0 1 1 0 2c-1.08 0-2.064.76-2.84 2.072"
    clip-rule="evenodd"
  />
  <path
    fill-rule="evenodd"
    d="M18.16 23.072C17.397 24.365 17 25.94 17 27a1 1 0 1 1-2 0c0-1.44.504-3.365 1.44-4.946C17.363 20.49 18.88 19 21 19a1 1 0 1 1 0 2c-1.08 0-2.064.76-2.84 2.072"
    clip-rule="evenodd"
  />
  <path
    fill-rule="evenodd"
    d="M25.09 19.989a1 1 0 0 1-.348 1.37c-.797.475-1.494 1.396-1.996 2.518C22.246 24.99 22 26.166 22 27a1 1 0 1 1-2 0c0-1.16.325-2.613.92-3.941.592-1.32 1.51-2.652 2.8-3.418a1 1 0 0 1 1.37.348"
    clip-rule="evenodd"
  />
  <path
    fill-rule="evenodd"
    d="M35 10a1 1 0 0 1 1 1v14a1 1 0 1 1-2 0V11a1 1 0 0 1 1-1"
    clip-rule="evenodd"
  />
  <path
    fill-rule="evenodd"
    d="M43 10a1 1 0 0 1 1 1v14a1 1 0 1 1-2 0V11a1 1 0 0 1 1-1"
    clip-rule="evenodd"
  />
  <path
    fill-rule="evenodd"
    d="M39 10a1 1 0 0 1 1 1v14a1 1 0 1 1-2 0V11a1 1 0 0 1 1-1"
    clip-rule="evenodd"
  />
  <path
    fill-rule="evenodd"
    d="M39 22a1 1 0 0 1 1 1v14a1 1 0 1 1-2 0V23a1 1 0 0 1 1-1"
    clip-rule="evenodd"
  />
  <path
    fill-rule="evenodd"
    d="M34 11v5.528a4 4 0 0 0 2.211 3.578L40 22v-5.528a4 4 0 0 0-2.211-3.578zm2 3.236v2.292a2 2 0 0 0 1.106 1.789l.894.447v-2.292a2 2 0 0 0-1.106-1.789z"
    clip-rule="evenodd"
  />
  <path
    fill-rule="evenodd"
    d="M34 17v5.528a4 4 0 0 0 2.211 3.578L40 28v-5.528a4 4 0 0 0-2.211-3.578zm2 3.236v2.292a2 2 0 0 0 1.106 1.789l.894.447v-2.292a2 2 0 0 0-1.106-1.789z"
    clip-rule="evenodd"
  />
  <path
    fill-rule="evenodd"
    d="M34 23v5.528a4 4 0 0 0 2.211 3.578L40 34v-5.528a4 4 0 0 0-2.211-3.578zm2 3.236v2.292a2 2 0 0 0 1.106 1.789l.894.447v-2.292a2 2 0 0 0-1.106-1.789z"
    clip-rule="evenodd"
  />
  <path
    fill-rule="evenodd"
    d="M44 11v5.528a4 4 0 0 1-2.211 3.578L38 22v-5.528a4 4 0 0 1 2.211-3.578zm-2 3.236v2.292a2 2 0 0 1-1.106 1.789l-.894.447v-2.292a2 2 0 0 1 1.106-1.789z"
    clip-rule="evenodd"
  />
  <path
    fill-rule="evenodd"
    d="M44 17v5.528a4 4 0 0 1-2.211 3.578L38 28v-5.528a4 4 0 0 1 2.211-3.578zm-2 3.236v2.292a2 2 0 0 1-1.106 1.789l-.894.447v-2.292a2 2 0 0 1 1.106-1.789z"
    clip-rule="evenodd"
  />
  <path
    fill-rule="evenodd"
    d="M44 23v5.528a4 4 0 0 1-2.211 3.578L38 34v-5.528a4 4 0 0 1 2.211-3.578zm-2 3.236v2.292a2 2 0 0 1-1.106 1.789l-.894.447v-2.292a2 2 0 0 1 1.106-1.789z"
    clip-rule="evenodd"
  />
</svg>
